assets/svg/icon-ui-json-white.svg

<?xml version="1.0" encoding="UTF-8" standalone="no"?>
<svg width="44px" height="32px" viewBox="0 0 44 32" version="1.1" xmlns="http://www.w3.org/2000/svg" xmlns:xlink="http://www.w3.org/1999/xlink">
    <!-- Generator: Sketch 3.8.3 (29802) - http://www.bohemiancoding.com/sketch -->
    <title>white/icon-ui-json-white</title>
    <desc>Created with Sketch.</desc>
    <defs></defs>
    <g id="white" stroke="none" stroke-width="1" fill="none" fill-rule="evenodd">
        <g id="icons,-utility-white" transform="translate(-103.000000, -369.000000)" fill="#FFFFFF">
            <g id="white/icon-ui-json-white" transform="translate(103.000000, 369.000000)">
                <g id="{..}-2">
                    <g id="PaaS">
                        <g id="hl7">
                            <g id="Lead-Section">
                                <g id="JSON">
                                    <path d="M0,14.4144144 C0.248641492,14.4144144 0.528358975,14.3783787 0.839160839,14.3063063 C1.1499627,14.2342339 1.42968019,14.108109 1.67832167,13.9279279 C1.92696317,13.7477469 2.13830527,13.4894912 2.31235431,13.1531531 C2.48640336,12.8168151 2.57342657,12.3963989 2.57342657,11.8918919 L2.57342657,4.75675676 C2.57342657,3.93993585 2.7039614,3.23724017 2.96503497,2.64864865 C3.22610854,2.06005712 3.58041734,1.56756956 4.02797203,1.17117117 C4.47552672,0.774772793 4.98523412,0.480481441 5.55710956,0.288288288 C6.12898499,0.0960951351 6.72571562,0 7.34731935,0 L10.0699301,0 L10.0699301,3.02702703 L8.01864801,3.02702703 C7.29758769,3.02702703 6.84382378,3.25525297 6.65734266,3.71171171 C6.47086154,4.16817044 6.37762237,4.66065802 6.37762237,5.18918919 L6.37762237,11.963964 C6.37762237,12.6606641 6.24087161,13.2552528 5.96736596,13.7477478 C5.69386032,14.2402427 5.37063123,14.642641 4.997669,14.9549549 C4.62470676,15.2672688 4.22688634,15.5075066 3.80419581,15.6756756 C3.38150527,15.8438447 3.02098051,15.9399398 2.72261072,15.9639639 L2.72261072,16.0360361 C3.02098051,16.0600602 3.38150527,16.1381375 3.80419581,16.2702703 C4.22688634,16.4024031 4.62470676,16.6246231 4.997669,16.9369369 C5.37063123,17.2492508 5.69386032,17.6696671 5.96736596,18.1981983 C6.24087161,18.7267293 6.37762237,19.4114073 6.37762237,20.2522522 L6.37762237,26.8108108 C6.37762237,27.339342 6.47086154,27.8318295 6.65734266,28.2882883 C6.84382378,28.7447471 7.29758769,28.9729729 8.01864801,28.9729729 L10.0699301,28.9729729 L10.0699301,32 L7.34731935,32 C6.72571562,32 6.12898499,31.9039049 5.55710956,31.7117117 C4.98523412,31.5195185 4.47552672,31.2252272 4.02797203,30.8288288 C3.58041734,30.4324304 3.22610854,29.9399428 2.96503497,29.3513514 C2.7039614,28.7627599 2.57342657,28.0600641 2.57342657,27.2432432 L2.57342657,20.3603603 C2.57342657,19.7837809 2.48640336,19.3153171 2.31235431,18.9549549 C2.13830527,18.5945927 1.92696317,18.3123133 1.67832167,18.1081081 C1.42968019,17.9039028 1.1499627,17.7657661 0.839160839,17.6936937 C0.528358975,17.6216212 0.248641492,17.5855856 0,17.5855856 L0,14.4144144 L0,14.4144144 Z M13.7995338,23.8558559 C13.7995338,23.0870832 14.0916832,22.4264292 14.6759907,21.8738739 C15.2602982,21.3213185 15.9626999,21.0450451 16.7832167,21.0450451 C17.5788695,21.0450451 18.2750553,21.3093066 18.8717949,21.8378378 C19.4685344,22.366369 19.7668998,23.0150112 19.7668998,23.7837839 C19.7668998,24.5525564 19.4747504,25.2132105 18.8904429,25.7657658 C18.3061354,26.318321 17.6037337,26.5945946 16.7832167,26.5945946 C16.3853904,26.5945946 16.0062177,26.5225232 15.6456877,26.3783783 C15.2851575,26.2342335 14.9681443,26.0420432 14.6946387,25.8018017 C14.421133,25.5615603 14.203575,25.2732749 14.041958,24.9369369 C13.8803411,24.600599 13.7995338,24.2402422 13.7995338,23.8558559 L13.7995338,23.8558559 L13.7995338,23.8558559 Z M23.4965036,23.8558559 C23.4965036,23.0870832 23.7886528,22.4264292 24.3729604,21.8738739 C24.9572679,21.3213185 25.6596695,21.0450451 26.4801865,21.0450451 C27.2758393,21.0450451 27.972025,21.3093066 28.5687645,21.8378378 C29.1655041,22.366369 29.4638695,23.0150112 29.4638695,23.7837839 C29.4638695,24.5525564 29.1717201,25.2132105 28.5874127,25.7657658 C28.003105,26.318321 27.3007034,26.5945946 26.4801865,26.5945946 C26.0823601,26.5945946 25.7031875,26.5225232 25.3426573,26.3783783 C24.9821271,26.2342335 24.665114,26.0420432 24.3916084,25.8018017 C24.1181027,25.5615603 23.9005447,25.2732749 23.7389277,24.9369369 C23.5773108,24.600599 23.4965036,24.2402422 23.4965036,23.8558559 L23.4965036,23.8558559 L23.4965036,23.8558559 Z M43.2634032,17.5855856 C42.9898976,17.5855856 42.7039642,17.6216212 42.4055945,17.6936937 C42.1072246,17.7657661 41.8337231,17.9039028 41.5850816,18.1081081 C41.3364401,18.3123133 41.125098,18.5945927 40.951049,18.9549549 C40.7769999,19.3153171 40.6899767,19.7837809 40.6899767,20.3603603 L40.6899767,27.2432432 C40.6899767,28.0600641 40.5594419,28.7627599 40.2983683,29.3513514 C40.0372947,29.9399428 39.6829859,30.4324304 39.2354313,30.8288288 C38.7878765,31.2252272 38.2781692,31.5195185 37.7062937,31.7117117 C37.1344183,31.9039049 36.5376877,32 35.9160839,32 L33.1934732,32 L33.1934732,28.9729729 L35.2447552,28.9729729 C35.9658156,28.9729729 36.4195795,28.7447471 36.6060607,28.2882883 C36.7925417,27.8318295 36.8857809,27.339342 36.8857809,26.8108108 L36.8857809,20.2522522 C36.8857809,19.4114073 37.0225316,18.7267293 37.2960372,18.1981983 C37.569543,17.6696671 37.8927721,17.2492508 38.2657343,16.9369369 C38.6386964,16.6246231 39.0365169,16.4024031 39.4592074,16.2702703 C39.881898,16.1381375 40.2424227,16.0600602 40.5407926,16.0360361 L40.5407926,15.9639639 C40.2424227,15.9399398 39.881898,15.8438447 39.4592074,15.6756756 C39.0365169,15.5075066 38.6386964,15.2672688 38.2657343,14.9549549 C37.8927721,14.642641 37.569543,14.2402427 37.2960372,13.7477478 C37.0225316,13.2552528 36.8857809,12.6606641 36.8857809,11.963964 L36.8857809,5.18918919 C36.8857809,4.66065802 36.7925417,4.16817044 36.6060607,3.71171171 C36.4195795,3.25525297 35.9658156,3.02702703 35.2447552,3.02702703 L33.1934732,3.02702703 L33.1934732,0 L35.9160839,0 C36.5376877,0 37.1344183,0.0960951351 37.7062937,0.288288288 C38.2781692,0.480481441 38.7878765,0.774772793 39.2354313,1.17117117 C39.6829859,1.56756956 40.0372947,2.06005712 40.2983683,2.64864865 C40.5594419,3.23724017 40.6899767,3.93993585 40.6899767,4.75675676 L40.6899767,11.8918919 C40.6899767,12.3963989 40.7769999,12.8168151 40.951049,13.1531531 C41.125098,13.4894912 41.3364401,13.7477469 41.5850816,13.9279279 C41.8337231,14.108109 42.1072246,14.2342339 42.4055945,14.3063063 C42.7039642,14.3783787 42.9898976,14.4144144 43.2634032,14.4144144 L43.2634032,17.5855856 L43.2634032,17.5855856 Z" id="{..}-2"></path>
                                </g>
                            </g>
                        </g>
                    </g>
                </g>
            </g>
        </g>
    </g>
</svg>

<svg width="44" height="32" viewBox="0 0 44 32" xmlns="http://www.w3.org/2000/svg"><title>white/icon-ui-json-white</title><path d="M0 14.414c.249 0 .528-.036.84-.108.31-.072.59-.198.838-.378.249-.18.46-.439.634-.775s.261-.757.261-1.261V4.757c0-.817.131-1.52.392-2.108A4.237 4.237 0 0 1 4.028 1.17c.448-.396.957-.69 1.53-.883A5.582 5.582 0 0 1 7.347 0h2.722v3.027H8.019c-.721 0-1.175.228-1.362.685-.186.456-.28.949-.28 1.477v6.775c0 .697-.136 1.291-.41 1.784a4.228 4.228 0 0 1-.97 1.207c-.372.312-.77.553-1.193.72-.422.169-.783.265-1.081.289v.072a5.11 5.11 0 0 1 1.081.234c.423.132.82.355 1.194.667.373.312.696.733.97 1.261.273.529.41 1.213.41 2.054v6.559c0 .528.093 1.02.28 1.477.186.457.64.685 1.36.685h2.052V32H7.347a5.582 5.582 0 0 1-1.79-.288 4.393 4.393 0 0 1-1.529-.883 4.237 4.237 0 0 1-1.063-1.478c-.261-.588-.392-1.29-.392-2.108V20.36c0-.576-.087-1.045-.26-1.405-.175-.36-.386-.643-.635-.847a2.027 2.027 0 0 0-.839-.414A3.753 3.753 0 0 0 0 17.586v-3.172zm13.8 9.442c0-.769.292-1.43.876-1.982.584-.553 1.287-.829 2.107-.829.796 0 1.492.264 2.089.793.597.528.895 1.177.895 1.946 0 .769-.292 1.43-.877 1.982-.584.552-1.286.829-2.107.829-.398 0-.777-.072-1.137-.217a3.262 3.262 0 0 1-.951-.576 2.686 2.686 0 0 1-.653-.865 2.464 2.464 0 0 1-.242-1.081zm9.697 0c0-.769.292-1.43.876-1.982.584-.553 1.287-.829 2.107-.829.796 0 1.492.264 2.089.793.597.528.895 1.177.895 1.946 0 .769-.292 1.43-.877 1.982-.584.552-1.286.829-2.107.829-.398 0-.777-.072-1.137-.217a3.262 3.262 0 0 1-.951-.576 2.686 2.686 0 0 1-.653-.865 2.464 2.464 0 0 1-.242-1.081zm19.766-6.27c-.273 0-.559.036-.857.108-.299.072-.572.21-.82.414-.25.204-.46.487-.635.847-.174.36-.261.829-.261 1.405v6.883c0 .817-.13 1.52-.392 2.108a4.237 4.237 0 0 1-1.063 1.478c-.447.396-.957.69-1.529.883a5.582 5.582 0 0 1-1.79.288h-2.723v-3.027h2.052c.72 0 1.175-.228 1.361-.685.187-.456.28-.949.28-1.477v-6.559c0-.84.137-1.525.41-2.054.274-.528.597-.949.97-1.261.373-.312.77-.535 1.193-.667a5.11 5.11 0 0 1 1.082-.234v-.072c-.299-.024-.66-.12-1.082-.288a4.372 4.372 0 0 1-1.193-.721 4.228 4.228 0 0 1-.97-1.207c-.273-.493-.41-1.087-.41-1.784V5.189c0-.528-.093-1.02-.28-1.477-.186-.457-.64-.685-1.361-.685h-2.052V0h2.723c.622 0 1.218.096 1.79.288a4.393 4.393 0 0 1 1.53.883c.447.397.801.89 1.062 1.478s.392 1.29.392 2.108v7.135c0 .504.087.925.261 1.261.174.336.385.595.634.775.249.18.522.306.82.378.299.072.585.108.858.108v3.172z" fill="#FFF" fill-rule="evenodd"/></svg>
